64x64/places/folder-black-github.svg

<svg xmlns="http://www.w3.org/2000/svg" width="64" height="64" version="1">
 <rect style="opacity:0.2" width="56" height="36" x="4" y="22" rx="2.8" ry="2.8"/>
 <path style="fill:#17191e" d="M 4,46.2 C 4,47.751 5.2488,49 6.8,49 H 57.2 C 58.751,49 60,47.751 60,46.2 V 15.8 C 60,14.249 58.751,13 57.2,13 H 32 C 27.8,13 26.4,7 22.2,7 H 6.8 C 5.2488,7 4,8.2488 4,9.8"/>
 <rect style="opacity:0.2" width="56" height="36" x="4" y="20" rx="2.8" ry="2.8"/>
 <rect style="fill:#dcdcdc" width="48" height="22" x="8" y="16" rx="2.8" ry="2.8"/>
 <rect style="fill:#4f4f4f" width="56" height="36" x="4" y="21" rx="2.8" ry="2.8"/>
 <path style="opacity:0.1;fill:#f4f4f7" d="M 6.8008,7 C 5.2496,7 4,8.2496 4,9.8008 V 10.801 C 4,9.2496 5.2496,8 6.8008,8 H 22.199 C 26.399,8 27.8,14 32,14 H 57.199 C 58.75,14 60,15.25 60,16.801 V 15.801 C 60,14.25 58.75,13 57.199,13 H 32 C 27.8,13 26.399,7 22.199,7 Z"/>
 <path style="fill:#b2bfs9" d="m 32,29.024709 c -5.54,0 -10,4.46 -10,10 0,4.466211 2.95902,8.22516 6.98535,9.516601 v -1.677417 c -2.531314,0.5586 -3.123045,-1.113282 -3.123045,-1.113282 -0.413988,-1.068275 -1.010743,-1.152462 -1.010743,-1.152462 -0.826287,-0.573213 0.06104,-0.563965 0.06104,-0.563965 0.9134,0.06524 1.394042,0.95459 1.394042,0.95459 0.811752,1.4129 2.189568,1.005742 2.708006,0.769042 0.08269,-0.597162 0.259759,-1.60705 0.519534,-1.838087 C 27.513559,43.686354 26,42.394209 26,38.850959 c 0,-1.009251 0.595875,-2.334671 1.178,-2.980548 -0.09387,-0.233875 -0.40761,-1.586795 0.08789,-2.859419 0,0 0.04774,-0.01503 0.146485,-0.01954 0.296125,-0.01387 0.96225,0.460581 2.265625,1.357956 0.78693,-0.226079 1.693295,-0.33179 2.322004,-0.336915 0.708915,-0.0059 1.429793,0.116113 2.169513,0.336915 1.30375,-0.897375 2.136641,-1.374147 2.431641,-1.360399 h 0.0025 c 0.09863,0.0046 0.146484,0.01954 0.146485,0.01954 0.49665,1.272575 0.183632,2.627986 0.09034,2.86186 C 37.423632,36.51641 38,37.841705 38,38.850958 c 0,3.552275 -2.276108,4.832682 -4.302858,5.061445 0.326258,0.2855 0.407716,0.851605 0.407716,1.713867 0,1.0414 -0.0026,1.7183 -0.0049,2.148438 V 48.7 c 4.320709,-1.105851 7.900023,-5.000397 7.900023,-9.675292 0,-5.54 -4.46,-10 -10,-10 z"/>
</svg>

<svg xmlns="http://www.w3.org/2000/svg" width="64" height="64" version="1"><rect style="opacity:.2" width="56" height="36" x="4" y="22" rx="2.8" ry="2.8"/><path style="fill:#17191e" d="M4 46.2C4 47.751 5.249 49 6.8 49h50.4c1.551 0 2.8-1.249 2.8-2.8V15.8c0-1.551-1.249-2.8-2.8-2.8H32c-4.2 0-5.6-6-9.8-6H6.8A2.794 2.794 0 0 0 4 9.8"/><rect style="opacity:.2" width="56" height="36" x="4" y="20" rx="2.8" ry="2.8"/><rect style="fill:#dcdcdc" width="48" height="22" x="8" y="16" rx="2.8" ry="2.8"/><rect style="fill:#4f4f4f" width="56" height="36" x="4" y="21" rx="2.8" ry="2.8"/><path style="opacity:.1;fill:#f4f4f7" d="M6.8 7C5.25 7 4 8.25 4 9.8v1.001A2.795 2.795 0 0 1 6.8 8H22.2c4.2 0 5.601 6 9.801 6h25.199A2.796 2.796 0 0 1 60 16.801v-1A2.796 2.796 0 0 0 57.199 13H32c-4.2 0-5.601-6-9.801-6z"/><path style="fill:#b2bfs9" d="M32 29.025c-5.54 0-10 4.46-10 10 0 4.466 2.959 8.225 6.985 9.516v-1.677c-2.531.558-3.123-1.113-3.123-1.113-.414-1.069-1.01-1.153-1.01-1.153-.827-.573.06-.564.06-.564.914.065 1.395.955 1.395.955.811 1.413 2.19 1.006 2.708.769.082-.597.26-1.607.52-1.838C27.513 43.686 26 42.394 26 38.85c0-1.01.596-2.335 1.178-2.98-.094-.234-.408-1.587.088-2.86 0 0 .048-.015.146-.02.297-.013.963.461 2.266 1.358A9.368 9.368 0 0 1 32 34.012c.709-.005 1.43.117 2.17.337 1.303-.897 2.136-1.374 2.431-1.36h.003c.098.005.146.02.146.02.497 1.272.184 2.628.09 2.861.584.646 1.16 1.972 1.16 2.981 0 3.552-2.276 4.833-4.303 5.061.326.286.408.852.408 1.714 0 1.042-.003 1.719-.005 2.149v.925c4.32-1.106 7.9-5 7.9-9.675 0-5.54-4.46-10-10-10z"/></svg>
